svg/Pictogram/pictograms-nps-misc-book_and_souvenir_shop.svg

<svg xmlns="http://www.w3.org/2000/svg" viewBox="0 0 256 256"><path d="m0 0c-.541 0-.98-.44-.98-.981v-7.522c0-.541.439-.981.98-.981h7.521c.54 0 .979.44.979.981v7.522c0 .541-.439.981-.979.981h-7.521" fill="#fff" transform="matrix(25.89783 0 0-25.89783 30.598 5.185)"/><path d="m0 0h-7.521c-.653 0-1.182-.529-1.182-1.182v-7.521c0-.652.529-1.182 1.182-1.182h7.521c.652 0 1.18.53 1.18 1.182v7.521c0 .653-.528 1.182-1.18 1.182" transform="matrix(25.89783 0 0-25.89783 225.39 0)"/><g fill="#fff"><path d="m0 0h-.941l.757.305c.082.033.121.125.088.206-.033.081-.125.12-.205.088 0 0-.429-.173-.852-.344.343.341.696.691.696.691.031.031.047.072.047.112 0 .041-.016.081-.046.111-.062.063-.161.063-.224.0001l-.981-.973.005 1.384c0 .087-.071.158-.157.158h-.0001c-.087 0-.158-.07-.159-.157 0 0-.003-.915-.004-1.384-.316.318-.879.886-.879.886-.062.062-.162.063-.224.0001-.062-.062-.063-.162-.0001-.224l.612-.617-.881.352c-.081.032-.173-.008-.205-.089-.033-.081.007-.173.088-.205l.758-.302h-.908c-.132 0-.238-.106-.238-.237v-5.04c0-.132.106-.237.238-.237h3.617c.131 0 .238.105.238.237v5.04c0 .131-.107.237-.238.237m-.236-2.192h-1.42v1.717h1.42v-1.717zm-1.737 0h-1.408v1.717h1.408v-1.717m-1.408-.316h1.408v-2.536h-1.408v2.536m1.725 0h1.42v-2.536h-1.42v2.536" transform="matrix(25.89783 0 0-25.89783 222.96 76.29)"/><path d="m0 0h-.093c-.053.062-.074.137-.057.231.027.155.138.285.191.303v.002c.076.027.131.099.131.184l.005 4.062c0 .109-.089.197-.198.197 0 0-.639.002-.864.003 0 .192.002.455.002.455 0 .079-.048.151-.122.182-.073.03-.158.014-.216-.042l-1.375-1.365c-.24-.239-.431-.694-.432-1.035l-.011-2.84c0-.399.322-.724.721-.725l2.317-.008c.108 0 .197.088.198.197v.0001c0 .109-.088.197-.197.198m-.219 4.585c0-.339-.004-3.328-.004-3.667h-2.07l1.41 1.182-.003 2.486c.128 0 .547-.0001.667-.0001m-2.425-4.25c0 0 .0001.165.0001.188h2.176c-.033-.071-.059-.147-.073-.224-.019-.106-.001-.204.015-.298l-1.791.006c-.181.0001-.328.148-.328.328" transform="matrix(25.89783 0 0-25.89783 105.31 209.94)"/></g></svg>

<?xml version="1.0" encoding="UTF-8" standalone="no"?>
<!-- Created with Inkscape (http://www.inkscape.org/) -->
<svg
   xmlns:dc="http://purl.org/dc/elements/1.1/"
   xmlns:cc="http://creativecommons.org/ns#"
   xmlns:rdf="http://www.w3.org/1999/02/22-rdf-syntax-ns#"
   xmlns:svg="http://www.w3.org/2000/svg"
   xmlns="http://www.w3.org/2000/svg"
   xmlns:sodipodi="http://sodipodi.sourceforge.net/DTD/sodipodi-0.dtd"
   xmlns:inkscape="http://www.inkscape.org/namespaces/inkscape"
   width="256"
   height="256"
   id="svg8302"
   sodipodi:version="0.32"
   inkscape:version="0.46"
   version="1.0"
   sodipodi:docname="pictograms-nps-misc-souvenir_shop-2.svg"
   inkscape:output_extension="org.inkscape.output.svg.inkscape">
  <defs
     id="defs8304">
    <inkscape:perspective
       sodipodi:type="inkscape:persp3d"
       inkscape:vp_x="0 : 526.18109 : 1"
       inkscape:vp_y="0 : 1000 : 0"
       inkscape:vp_z="744.09448 : 526.18109 : 1"
       inkscape:persp3d-origin="372.04724 : 350.78739 : 1"
       id="perspective8310" />
  </defs>
  <sodipodi:namedview
     id="base"
     pagecolor="#ffffff"
     bordercolor="#666666"
     borderopacity="1.0"
     gridtolerance="10000"
     guidetolerance="10"
     objecttolerance="10"
     inkscape:pageopacity="0.0"
     inkscape:pageshadow="2"
     inkscape:zoom="0.7"
     inkscape:cx="61.634556"
     inkscape:cy="136.73676"
     inkscape:document-units="px"
     inkscape:current-layer="layer1"
     showgrid="false"
     inkscape:window-width="738"
     inkscape:window-height="674"
     inkscape:window-x="0"
     inkscape:window-y="198" />
  <metadata
     id="metadata8307">
    <rdf:RDF>
      <cc:Work
         rdf:about="">
        <dc:format>image/svg+xml</dc:format>
        <dc:type
           rdf:resource="http://purl.org/dc/dcmitype/StillImage" />
      </cc:Work>
    </rdf:RDF>
  </metadata>
  <g
     inkscape:label="Layer 1"
     inkscape:groupmode="layer"
     id="layer1">
    <g
       id="g2498"
       transform="matrix(25.897825,0,0,-25.897825,30.598177,5.184953)">
      <path
         d="M 0,0 C -0.541,0 -0.98,-0.44 -0.98,-0.981 L -0.98,-8.503 C -0.98,-9.044 -0.541,-9.484 0,-9.484 L 7.521,-9.484 C 8.061,-9.484 8.5,-9.044 8.5,-8.503 L 8.5,-0.981 C 8.5,-0.44 8.061,0 7.521,0 L 0,0 z"
         style="fill:#ffffff;fill-opacity:1;fill-rule:nonzero;stroke:none"
         id="path2500" />
    </g>
    <g
       id="g2502"
       transform="matrix(25.897825,0,0,-25.897825,225.38877,1.278e-6)">
      <path
         d="M 0,0 L -7.521,0 C -8.174,0 -8.703,-0.529 -8.703,-1.182 L -8.703,-8.703 C -8.703,-9.355 -8.174,-9.885 -7.521,-9.885 L 0,-9.885 C 0.652,-9.885 1.18,-9.355 1.18,-8.703 L 1.18,-1.182 C 1.18,-0.529 0.652,0 0,0"
         style="fill:#000000;fill-opacity:1;fill-rule:nonzero;stroke:none"
         id="path2504" />
    </g>
    <g
       id="g2506"
       transform="matrix(25.897825,0,0,-25.897825,222.96204,76.289813)">
      <path
         d="M 0,0 L -0.941,0 L -0.184,0.305 C -0.102,0.338 -0.063,0.43 -0.096,0.511 C -0.129,0.592 -0.221,0.631 -0.301,0.599 C -0.301,0.599 -0.73,0.426 -1.153,0.255 C -0.81,0.596 -0.457,0.946 -0.457,0.946 C -0.426,0.977 -0.41,1.018 -0.41,1.058 C -0.41,1.099 -0.426,1.139 -0.456,1.169 C -0.518,1.232 -0.617,1.232 -0.68,1.17 L -1.661,0.197 L -1.656,1.581 C -1.656,1.668 -1.727,1.739 -1.813,1.739 L -1.814,1.739 C -1.901,1.739 -1.972,1.669 -1.973,1.582 C -1.973,1.582 -1.976,0.667 -1.977,0.198 C -2.293,0.516 -2.856,1.084 -2.856,1.084 C -2.918,1.146 -3.018,1.147 -3.08,1.085 C -3.142,1.023 -3.143,0.923 -3.081,0.861 L -2.469,0.244 L -3.35,0.596 C -3.431,0.628 -3.523,0.588 -3.555,0.507 C -3.588,0.426 -3.548,0.334 -3.467,0.302 L -2.709,0 L -3.617,0 C -3.749,0 -3.855,-0.106 -3.855,-0.237 L -3.855,-5.281 C -3.855,-5.413 -3.749,-5.518 -3.617,-5.518 L 0,-5.518 C 0.131,-5.518 0.238,-5.413 0.238,-5.281 L 0.238,-0.237 C 0.238,-0.106 0.131,0 0,0 M -0.236,-2.192 L -1.656,-2.192 L -1.656,-0.475 L -0.236,-0.475 L -0.236,-2.192 z M -1.973,-2.192 L -3.381,-2.192 L -3.381,-0.475 L -1.973,-0.475 L -1.973,-2.192 z M -3.381,-2.508 L -1.973,-2.508 L -1.973,-5.044 L -3.381,-5.044 L -3.381,-2.508 z M -1.656,-2.508 L -0.236,-2.508 L -0.236,-5.044 L -1.656,-5.044 L -1.656,-2.508 z"
         style="fill:#ffffff;fill-opacity:1;fill-rule:nonzero;stroke:none"
         id="path2508" />
    </g>
    <g
       id="g2510"
       transform="matrix(25.897825,0,0,-25.897825,105.30822,209.94103)">
      <path
         d="M 0,0 L -0.093,0 C -0.146,0.062 -0.167,0.137 -0.15,0.231 C -0.123,0.386 -0.012,0.516 0.041,0.534 L 0.041,0.536 C 0.117,0.563 0.172,0.635 0.172,0.72 L 0.177,4.782 C 0.177,4.891 0.088,4.979 -0.021,4.979 C -0.021,4.979 -0.66,4.981 -0.885,4.982 C -0.885,5.174 -0.883,5.437 -0.883,5.437 C -0.883,5.516 -0.931,5.588 -1.005,5.619 C -1.078,5.649 -1.163,5.633 -1.221,5.577 L -2.596,4.212 C -2.836,3.973 -3.027,3.518 -3.028,3.177 L -3.039,0.337 C -3.039,-0.062 -2.717,-0.387 -2.318,-0.388 L -0.001,-0.396 C 0.107,-0.396 0.196,-0.308 0.197,-0.199 L 0.197,-0.198 C 0.197,-0.089 0.109,-0.001 0,0 M -0.219,4.585 C -0.219,4.246 -0.223,1.257 -0.223,0.918 L -2.293,0.918 L -0.883,2.1 L -0.886,4.586 C -0.758,4.586 -0.339,4.585 -0.219,4.585 M -2.644,0.335 C -2.644,0.335 -2.643,0.5 -2.643,0.523 L -0.467,0.523 C -0.5,0.452 -0.526,0.376 -0.54,0.299 C -0.559,0.193 -0.55,0.095 -0.525,0.001 L -2.316,0.007 C -2.497,0.008 -2.644,0.155 -2.644,0.335"
         style="fill:#ffffff;fill-opacity:1;fill-rule:nonzero;stroke:none"
         id="path2512" />
    </g>
  </g>
</svg>
